src/64x64/places/folder-gruvbox-original-orange-vmware.svg

<svg xmlns="http://www.w3.org/2000/svg" width="64" height="64" version="1">
 <rect style="opacity:0.2" width="56" height="36" x="4" y="22" rx="2.8" ry="2.8"/>
 <path style="fill:#af3a03" d="M 4,46.2 C 4,47.751 5.2488,49 6.8,49 H 57.2 C 58.751,49 60,47.751 60,46.2 V 15.8 C 60,14.249 58.751,13 57.2,13 H 32 C 27.8,13 26.4,7 22.2,7 H 6.8 C 5.2488,7 4,8.2488 4,9.8"/>
 <rect style="opacity:0.2" width="56" height="36" x="4" y="20" rx="2.8" ry="2.8"/>
 <rect style="fill:#F1D8AF" width="48" height="22" x="8" y="16" rx="2.8" ry="2.8"/>
 <rect style="fill:#fe8019" width="56" height="36" x="4" y="21" rx="2.8" ry="2.8"/>
 <path style="fill:#46352B" d="M 22.571486,27.999889 C 21.700899,27.999889 21,28.700754 21,29.571375 v 6.871882 c 0,0.870588 0.700866,1.571486 1.571486,1.571486 C 23.442073,38.014743 24,37.313878 24,36.443257 v -3.590186 l 3.000204,2.856955 v 2.504521 h 3.042914 v -0.385554 c 0,-0.435299 0.350431,-0.785732 0.785732,-0.785732 h 0.385556 V 34.000127 H 28.709884 L 25.853,31.000071 h 3.590257 c 0.870587,0 1.571486,-0.557933 1.571486,-1.428553 0,-0.870588 -0.700866,-1.571486 -1.571486,-1.571486 h -6.871804 z m 11.985257,0 c -0.870587,0 -1.571486,0.700865 -1.571486,1.571486 0,0.870587 0.700866,1.428554 1.571486,1.428554 H 38.147 l -2.856994,2.999945 h -2.504522 v 3.043134 h 0.385633 c 0.4353,0 0.785732,0.350433 0.785732,0.785732 v 0.385554 h 3.042558 v -2.504521 l 3.000945,-2.856845 v 3.590329 c 0,0.870588 0.65738,1.571486 1.528,1.571486 C 42.398939,38.014743 43,37.313878 43,36.443257 v -6.872025 c 0,-0.870588 -0.700866,-1.571486 -1.571486,-1.571486 H 34.5566 Z m -7.556979,11.785594 v 2.642554 c 0,0.871215 0.201039,1.54422 1.071813,1.571926 h 3.142862 v -3.042916 h -0.385556 c -0.4353,0 -0.676424,-0.36438 -0.785732,-0.785732 v -0.385469 h -3.042914 z m 6.957118,0 v 0.385469 c 0,0.435299 -0.350432,0.785732 -0.785732,0.785732 H 32.785517 V 43.9996 h 2.504522 L 38.147,47 h -3.590257 c -0.870587,0 -1.571486,0.65838 -1.571486,1.529 0,0.870587 0.700866,1.470999 1.571486,1.470999 h 6.871727 c 0.870114,0.0011 1.570826,-0.699612 1.570826,-1.570826 v -6.87143 c 0,-0.870587 -0.601028,-1.571486 -1.471648,-1.571486 -0.870587,0 -1.528,0.700866 -1.528,1.571486 V 45.148 L 36.998593,42.291622 V 39.7871 h -3.042558 z"/>
 <path style="opacity:0.1;fill:#F1D8AF" d="M 6.8008,7 C 5.2496,7 4,8.2496 4,9.8008 V 10.801 C 4,9.2496 5.2496,8 6.8008,8 H 22.199 C 26.399,8 27.8,14 32,14 H 57.199 C 58.75,14 60,15.25 60,16.801 V 15.801 C 60,14.25 58.75,13 57.199,13 H 32 C 27.8,13 26.399,7 22.199,7 Z"/>
</svg>

<?xml version="1.0" encoding="UTF-8"?>
<svg width="64" height="64" version="1" xmlns="http://www.w3.org/2000/svg">
 <rect x="4" y="22" width="56" height="36" rx="2.8" ry="2.8" opacity=".2"/>
 <path d="m4 46.2c0 1.551 1.2488 2.8 2.8 2.8h50.4c1.551 0 2.8-1.249 2.8-2.8v-30.4c0-1.551-1.249-2.8-2.8-2.8h-25.2c-4.2 0-5.6-6-9.8-6h-15.4c-1.5512 0-2.8 1.2488-2.8 2.8" fill="#af3a03"/>
 <rect x="4" y="20" width="56" height="36" rx="2.8" ry="2.8" opacity=".2"/>
 <rect x="8" y="16" width="48" height="22" rx="2.8" ry="2.8" fill="#F1D8AF"/>
 <rect x="4" y="21" width="56" height="36" rx="2.8" ry="2.8" fill="#fe8019"/>
 <path d="m22.571 28c-0.87059 0-1.5715 0.70086-1.5715 1.5715v6.8719c0 0.87059 0.70087 1.5715 1.5715 1.5715 0.87059 0 1.4285-0.70086 1.4285-1.5715v-3.5902l3.0002 2.857v2.5045h3.0429v-0.38555c0-0.4353 0.35043-0.78573 0.78573-0.78573h0.38556v-3.0431h-2.5045l-2.8569-3.0001h3.5903c0.87059 0 1.5715-0.55793 1.5715-1.4286 0-0.87059-0.70087-1.5715-1.5715-1.5715h-6.8718zm11.985 0c-0.87059 0-1.5715 0.70086-1.5715 1.5715 0 0.87059 0.70087 1.4286 1.5715 1.4286h3.5903l-2.857 2.9999h-2.5045v3.0431h0.38563c0.4353 0 0.78573 0.35043 0.78573 0.78573v0.38555h3.0426v-2.5045l3.0009-2.8568v3.5903c0 0.87059 0.65738 1.5715 1.528 1.5715 0.87059 0 1.4716-0.70086 1.4716-1.5715v-6.872c0-0.87059-0.70087-1.5715-1.5715-1.5715h-6.8719zm-7.557 11.786v2.6426c0 0.87122 0.20104 1.5442 1.0718 1.5719h3.1429v-3.0429h-0.38556c-0.4353 0-0.67642-0.36438-0.78573-0.78573v-0.38547h-3.0429zm6.9571 0v0.38547c0 0.4353-0.35043 0.78573-0.78573 0.78573h-0.38563v3.0429h2.5045l2.857 3.0004h-3.5903c-0.87059 0-1.5715 0.65838-1.5715 1.529 0 0.87059 0.70087 1.471 1.5715 1.471h6.8717c0.87011 0.0011 1.5708-0.69961 1.5708-1.5708v-6.8714c0-0.87059-0.60103-1.5715-1.4716-1.5715-0.87059 0-1.528 0.70087-1.528 1.5715v3.5903l-3.0011-2.8564v-2.5045h-3.0426z" fill="#46352B"/>
 <path d="m6.8008 7c-1.5512 0-2.8008 1.2496-2.8008 2.8008v1.0002c0-1.5514 1.2496-2.801 2.8008-2.801h15.398c4.2 0 5.601 6 9.801 6h25.199c1.551 0 2.801 1.25 2.801 2.801v-1c0-1.551-1.25-2.801-2.801-2.801h-25.199c-4.2 0-5.601-6-9.801-6z" fill="#F1D8AF" opacity=".1"/>
</svg>
